X:1111
T:Rakes of Glasgow
P:Rakes of Glasgow
C:Preston's Twelve Favourite Country Dances 1806
R:Strathspey (8x32)
B:RSCDS 11-11
Z:Anselm Lingnau <anselm@strathspey.org>
M:4/4
L:1/8
K:C
G|"C"c>d c<G "Am"E>C "C"E<G|"F"A>c "C"G<E g>e "G"d>e|\
  "C"c>d e<c "F"A<c "C"G<c|"G"B>d G<d "C"e<c cG|
  "C"c>d c<G "Am"E>C "C"E<G|"F"A>c "C"G<E g>e "G"d>e|\
  "C"c>d e<c "F"A<c "C"G<c|"G"B>d G<d "C"e<c c:|
|:G|"Am"[A2C2] "G"[G3/2D2]F "C"E<C E2|"C"g>e "Dm"f>d "G"B/c/d/B/ G2|\
    "Am"[A2C2] "G"[G3/2D2]F "C"E<C E<c|"G"B/c/d/B/ G>d "C"e<c c:|
d|"C"e2 c>g e<c g>c|"G"d2 "C"e2 "G"g/f/e/f/ d2|\
  "C"e2 c>g e<c g>c|"G"B/c/d/B/ G>g "C"e<c cd|
  "C"e2 c>g e<c g>c|"G"d2 "C"e2 "G"g/f/e/f/ d2|\
  "C"e2 c>g e<c g>c|"G"B/c/d/B/ G>g "C"e<c c|]
